X:1
T:Title
%%score { ( 1 3 ) | 2 }
L:1/8
Q:1/4=104
M:6/8
K:F
V:1 treble nm="Grand Piano"
V:3 treble 
V:2 bass 
V:1
 F2 F F2 G | A3 A3 | [DFB]2 [DFB] [DFB]2 [DFB] | A6 | A2 c c2 d | c3 A3 | A2 A G2 F | [EG]6 | %8
w: J.~M.~Black * * *||||||||
 F2 F F2 G | A3 A3 | [DFB]2 [DFB] [B,DF]2 [DFB] | A6 | A2 c c2 d | c2 A [CF]2 [DFG] | %14
w: ||||||
 [CFA]3 [B,EG]3 | [F,A,CF]6 | [Fd]3 [Fd]3 | [Fc]3 [Fc]3 | [GB]2 [GB] [FA]2 [EG] | [FA]6 | %20
w: ||||||
 [FA]3 [Fd]3 | c3 A3 | G2 G A2 =B |[M:15/16] c3 B3/2- B3 |[M:3/4] A3 c3 | c3 A3 | %26
w: ||||||
 F2 F [CEG]2 [_EFA] | [DFB]6 | A2 c c2 d | c2 A [CF]2 [DFG] | [CFA]3 [B,EG]3 | [F,A,CF]6 |] %32
w: ||||||
V:2
 [F,A,C]2 [F,A,C] [F,A,C]2 [F,B,C] | [F,CF]3 [F,CF]3 | B,,2 B,, B,,2 B,, | [F,CF]6 | %4
 [F,CF]2 [F,A,F] [F,A,F]2 [F,B,F] | [F,A,F]3 [F,CF]3 | [F,CF]2 [F,CF] [E,C]2 [D,=B,] | [C,C]6 | %8
 [F,A,C]2 [F,A,C] [F,A,C]2 [F,B,C] | [F,CF]3 [F,CF]3 | B,,2 B,, B,,2 B,, | [F,CF]6 | %12
 [F,CF]2 [F,A,F] [F,A,F]2 [F,B,F] | [F,A,F]2 [F,CF] A,,2 B,, | C,3 C,3 | F,,6 | [B,,B,]3 [B,,B,]3 | %17
 [F,A,]3 [F,A,]3 | [C,C]2 [C,C] [C,C]2 [C,C] | [F,C]6 | [F,C]3 [B,,B,]3 | [F,A,F]3 [F,CF]3 | %22
 [G,CE]2 [G,CE] [G,=B,F]2 [G,DF] |[M:15/16][K:bass] [C,C]3/2-[C,C]3/2-[C,C]3/2- [C,C]3 | %24
[M:3/4] [F,CF]3 [F,A,F]3 | [F,A,F]3 [F,CF]3 | [F,A,]2 [F,A,] C,2 F, | B,,6 | %28
 [F,CF]2 [F,A,F] [F,A,F]2 [F,B,F] | [F,A,F]2 [F,CF] A,,2 B,, | C,3 C,3 | F,,6 |] %32
V:3
 x6 | x6 | x6 | x6 | x6 | x6 | x6 | x6 | x6 | x6 | x6 | x6 | x6 | x6 | x6 | x6 | x6 | x6 | x6 | %19
 x6 | x6 | x6 | x6 |[M:15/16] E3/2-E3/2-E3/2- E3 |[M:3/4] x6 | x6 | x6 | x6 | x6 | x6 | x6 | x6 |] %32

